X: 15951
T: Granny On The Roofrack, The
R: reel
M: 4/4
K: Dmajor
|:dA (3AAA B2dB|~A2FA Bddc|dA (3AAA B2dA|~E2DE FDD2:|
|:~a2fd A3f|~a2fa beef|~a2fd Adfd|1 ~e2de fddf:|2 ~e2de fdec||

